img/logo-2.svg

<svg width="73" height="21" viewBox="0 0 73 21" fill="none" xmlns="http://www.w3.org/2000/svg">
<path d="M12.1553 12.0371L9.86133 5.82764L7.5542 12.0371H12.1553ZM13.5 15.5439H6.20947L4.58789 20H0.263672L7.69922 1.09473H12.0103L19.4458 20H15.1216L13.5 15.5439ZM27.1529 1.09473V20H23.5011V1.09473H27.1529ZM36.6135 6.76367V20H32.9616V6.76367H36.6135ZM36.2971 1.5166C36.6838 1.88574 36.8771 2.37793 36.8771 2.99316C36.8771 3.59961 36.6838 4.0874 36.2971 4.45654C35.9104 4.82568 35.383 5.01025 34.715 5.01025C34.0998 5.01025 33.6076 4.82568 33.2385 4.45654C32.8781 4.0874 32.6979 3.59961 32.6979 2.99316C32.6979 2.37793 32.8825 1.88574 33.2517 1.5166C33.6208 1.14746 34.1086 0.962891 34.715 0.962891C35.383 0.962891 35.9104 1.14746 36.2971 1.5166ZM46.219 10.8901C45.5774 11.5669 45.2566 12.4019 45.2566 13.395C45.2566 14.3794 45.5774 15.21 46.219 15.8867C46.8606 16.5547 47.6209 16.8887 48.4998 16.8887C49.3787 16.8887 50.139 16.5547 50.7806 15.8867C51.4222 15.21 51.743 14.3794 51.743 13.395C51.743 12.4019 51.4222 11.5669 50.7806 10.8901C50.139 10.2134 49.3787 9.875 48.4998 9.875C47.6209 9.875 46.8606 10.2134 46.219 10.8901ZM53.4173 8.56982C54.8147 9.94092 55.5135 11.5449 55.5135 13.3818C55.5135 15.2188 54.8147 16.8271 53.4173 18.207C52.0286 19.5781 50.3895 20.2637 48.4998 20.2637C46.6102 20.2637 44.9666 19.5781 43.5691 18.207C42.1717 16.8271 41.4729 15.2188 41.4729 13.3818C41.4729 11.5449 42.1717 9.94092 43.5691 8.56982C44.9666 7.18994 46.6102 6.5 48.4998 6.5C50.3895 6.5 52.0286 7.18994 53.4173 8.56982ZM63.8798 6.76367V8.38525C63.9853 8.24463 64.1347 8.07324 64.328 7.87109C64.5214 7.66016 64.9433 7.37891 65.5937 7.02734C66.2528 6.67578 66.9428 6.5 67.6635 6.5C69.1752 6.5 70.4057 7.02295 71.3549 8.06885C72.3129 9.11475 72.7919 10.5254 72.7919 12.3008V20H69.1532V12.7095C69.1532 11.9009 68.9115 11.2505 68.4281 10.7583C67.9535 10.2573 67.3383 10.0068 66.5824 10.0068C65.7562 10.0068 65.0971 10.2793 64.6049 10.8242C64.1215 11.3604 63.8798 12.125 63.8798 13.1182V20H60.2411V6.76367H63.8798Z" fill="#49A3FE"/>
</svg>

<svg width="73" height="21" viewBox="0 0 73 21" fill="none" xmlns="http://www.w3.org/2000/svg"><path d="M12.155 12.037l-2.294-6.21-2.307 6.21h4.601zm1.345 3.507H6.21L4.587 20H.264L7.699 1.095h4.311L19.446 20h-4.324L13.5 15.544zm13.653-14.45V20H23.5V1.095h3.652zm9.46 5.67V20h-3.651V6.764h3.651zm-.316-5.247c.387.369.58.86.58 1.476 0 .607-.193 1.094-.58 1.464-.387.369-.914.553-1.582.553-.615 0-1.107-.184-1.477-.553-.36-.37-.54-.857-.54-1.464 0-.615.184-1.107.554-1.476.369-.37.857-.554 1.463-.554.668 0 1.195.184 1.582.554zm9.922 9.373c-.642.677-.962 1.512-.962 2.505 0 .984.32 1.815.962 2.492.642.668 1.402 1.002 2.28 1.002.88 0 1.64-.334 2.282-1.002.641-.677.962-1.508.962-2.492 0-.993-.32-1.828-.962-2.505-.642-.677-1.402-1.015-2.281-1.015-.88 0-1.64.338-2.281 1.015zm7.198-2.32c1.398 1.37 2.096 2.975 2.096 4.812 0 1.837-.698 3.445-2.096 4.825-1.388 1.371-3.028 2.057-4.917 2.057-1.89 0-3.533-.686-4.93-2.057-1.398-1.38-2.097-2.988-2.097-4.825 0-1.837.699-3.441 2.096-4.812C44.967 7.19 46.61 6.5 48.5 6.5c1.89 0 3.53.69 4.918 2.07zM63.88 6.764v1.621c.105-.14.255-.312.448-.514.193-.21.615-.492 1.266-.844a4.34 4.34 0 012.07-.527c1.511 0 2.742.523 3.69 1.569.959 1.046 1.438 2.456 1.438 4.232V20h-3.639v-7.29c0-.81-.242-1.46-.725-1.952-.474-.5-1.09-.751-1.846-.751-.826 0-1.485.272-1.977.817-.484.536-.725 1.301-.725 2.294V20h-3.64V6.764h3.639z" fill="#49A3FE"/></svg>
